src/assets/calender.svg

<svg width="20" height="20" viewBox="0 0 20 20" fill="none" xmlns="http://www.w3.org/2000/svg">
<path d="M1.6665 15.8333C1.6665 17.25 2.74984 18.3333 4.1665 18.3333H15.8332C17.2498 18.3333 18.3332 17.25 18.3332 15.8333V9.16663H1.6665V15.8333ZM15.8332 3.33329H14.1665V2.49996C14.1665 1.99996 13.8332 1.66663 13.3332 1.66663C12.8332 1.66663 12.4998 1.99996 12.4998 2.49996V3.33329H7.49984V2.49996C7.49984 1.99996 7.1665 1.66663 6.6665 1.66663C6.1665 1.66663 5.83317 1.99996 5.83317 2.49996V3.33329H4.1665C2.74984 3.33329 1.6665 4.41663 1.6665 5.83329V7.49996H18.3332V5.83329C18.3332 4.41663 17.2498 3.33329 15.8332 3.33329Z" fill="#292524"/>
</svg>

<svg xmlns="http://www.w3.org/2000/svg" width="20" height="20" fill="none" viewBox="0 0 20 20"><path fill="#292524" d="M1.667 15.833c0 1.417 1.083 2.5 2.5 2.5h11.666c1.417 0 2.5-1.083 2.5-2.5V9.167H1.667zm14.166-12.5h-1.667V2.5c0-.5-.333-.833-.833-.833S12.5 2 12.5 2.5v.833h-5V2.5c0-.5-.333-.833-.833-.833S5.833 2 5.833 2.5v.833H4.167c-1.417 0-2.5 1.084-2.5 2.5V7.5h16.666V5.833c0-1.416-1.083-2.5-2.5-2.5"/></svg>
